X:64
%%etbk:tnset id:22,pos:2,rep:3
%%etbk:site1 http://www.thesession.org/tunes/display/1010
T: The Wheels Of The World
S: Martin Hayes
Z: Piano Box Version by Martin Fleischmann (www.boxplayer.ch)
M: 4/4
L: 1/8
R: reel
K: Ddor
| "dm"!5!A!1!DDE !3!FAGF | "am"!2!E!1!C!2!C!1!C !2!EF!4!G!1!C | "dm"!5!A!1!D !3!(3D!2!D!1!D !2!F!3!A!5!d!4!e | !5!fedc !1!A!3!ddc |
!1!A!3!F!1!D!2!E !3!FAGF | "am"!2!E!1!C !3!(3C!2!C!1!C !2!EF!4!G!3!A | "dm"!3!A2!5!d!4!B !5!cBA!2!G | "am"!1!E!2!D!1!C!3!E "dm"!2!D4:|
"C"!2!c3!4!e !5!g!4!e!2!c!4!e | "dm"!1!d2 !5!ad!5!bd!5!a!1!d | "am"!2!cBc!4!e !5!ge!2!c!3!d | !2!e!5!aag !2!e!1!d!2!c!1!B |
"am"!2!cBc!4!e !5!g!4!e!2!c!4!e | "dm"!1!d2 !5!ad!5!bd!5!ad | "am"!5!agag !2!e^fge | !5!afge !1!d4:|
|"var bar 3"!5!A!1!DD!2!E !1!F!2!A!5!d!4!e|

